icons/svg/format-quote.svg

<svg xmlns="http://www.w3.org/2000/svg" version="1.1" baseProfile="full" width="24" height="24" viewBox="0 0 24.00 24.00" xml:space="preserve"><path fill="#000" fill-opacity="1" stroke-linejoin="round" d="M14 17h3l2-4V7h-6v6h3M6 17h3l2-4V7H5v6h3l-2 4z"/></svg>

﻿<?xml version="1.0" encoding="utf-8"?>
<!DOCTYPE svg PUBLIC "-//W3C//DTD SVG 1.1//EN" "http://www.w3.org/Graphics/SVG/1.1/DTD/svg11.dtd">
<svg xmlns="http://www.w3.org/2000/svg" xmlns:xlink="http://www.w3.org/1999/xlink" version="1.1" baseProfile="full" width="24" height="24" viewBox="0 0 24.00 24.00" enable-background="new 0 0 24.00 24.00" xml:space="preserve">
	<path fill="#000000" fill-opacity="1" stroke-linejoin="round" d="M 14,17L 17,17L 19,13L 19,7L 13,7L 13,13L 16,13M 6,17L 9,17L 11,13L 11,7L 5,7L 5,13L 8,13L 6,17 Z "/>
</svg>
